!!!!SEGMENT: pl-cz--iii-623--001-008_raszek-waclaw--nieszpory-magnificat.krn
!!!cenid: 18xx:1011
!!!COM: Raszek, Wacław
!!!COM-rismID: pe30020314
!!!CDT: <1848->1848
!!!CNT:
!!!OPR: Nieszpory
!!!OTL: Magnificat
!!!OMV: 008
!!!PDT:
!!!AGN: Sacred
!!!SMS-siglum: PL-CZ
!!!SMS-shelfmark: III-623
!!!SMS-shelfwork: 001-008 M
!!!SMS-variant:
!!!SMS-altvar:
!!!NIFC-rismSourceID: 300001052
!!!NIFC-islandoraID: pl-cz:39506
!!!URL-pdf-islandora: https://repozytorium.nifc.pl/islandora/object/pl-cz%3A39506/datastream/PDF/view
!!!URL-scan:
!!!ONB-nifc: UWAGA: części Nieszporów: Dixit Dominus, Confitebor, Beatus vir, Laudate pueri, In exitu, Laudate Dominum, Iste confessor, Magnificat, Salve Regina. Uwaga: w Canto 1,2 i Tenorze zaburzona kolejność części
!!!AIN: 1 bass 2 clars 1 organ 2 soprn 1 tenor
!!!key:
**kern	**kern	**text	**text	**text	**kern	**text	**text	**text	**kern	**text	**text	**text	**kern	**text	**text	**text	**kern	**kern
*part7	*part6	*part6	*part6	*part6	*part5	*part5	*part5	*part5	*part4	*part4	*part4	*part4	*part3	*part3	*part3	*part3	*part2	*part1
*staff7	*staff6	*staff6	*staff6	*staff6	*staff5	*staff5	*staff5	*staff5	*staff4	*staff4	*staff4	*staff4	*staff3	*staff3	*staff3	*staff3	*staff2	*staff1
*IGcont	*IGcoro	*	*	*	*IGcoro	*	*	*	*IGcoro	*	*	*	*IGcoro	*	*	*	*	*
*ICklav	*ICvox	*	*	*	*ICvox	*	*	*	*ICvox	*	*	*	*ICvox	*	*	*	*ICww	*ICww
*Iorgan	*Ibass	*	*	*	*Itenor	*	*	*	*Isoprn	*	*	*	*Isoprn	*	*	*	*Iclars	*Iclars
*I"Baſso.	*I"Baſso.	*	*	*	*I"Tenore	*	*	*	*I"Canto Secondo	*	*	*	*I"Canto Primo	*	*	*	*I"Clarinetto Secondo.	*I"Clarinetto Primo
*I'b	*I'B	*	*	*	*I'T	*	*	*	*I'S 2	*	*	*	*I'S 1	*	*	*	*I'cl 2 in C	*I'cl 1 in C
*clefF4	*clefF4	*	*	*	*clefC4	*	*	*	*clefC1	*	*	*	*clefC1	*	*	*	*clefG2	*clefG2
*k[]	*k[]	*	*	*	*k[]	*	*	*	*k[]	*	*	*	*k[]	*	*	*	*k[]	*k[]
*C:	*C:	*	*	*	*C:	*	*	*	*C:	*	*	*	*C:	*	*	*	*C:	*C:
*M2/2	*M2/2	*	*	*	*M2/2	*	*	*	*M2/2	*	*	*	*M2/2	*	*	*	*M2/2	*M2/2
*met(c|)	*met(c|)	*	*	*	*met(c|)	*	*	*	*met(c|)	*	*	*	*met(c|)	*	*	*	*met(c|)	*met(c|)
*2\right	*2\right	*	*	*	*2\right	*	*	*	*2\right	*	*	*	*2\right	*	*	*	*2\right	*2\right
=1	=1	=1	=1	=1	=1	=1	=1	=1	=1	=1	=1	=1	=1	=1	=1	=1	=1	=1
!LO:TX:a:t=Moderato	!LO:TX:t=P:tekst:problem=nad "y" zawsze pojedyncza kropka	!	!	!	!LO:TX:a:t=Mod:	!	!	!	!LO:TX:a:t=Mod:	!	!	!	!LO:TX:a:t=Mod:	!	!	!	!LO:TX:a:t=1.	!LO:TX:a:t=1.
!	!LO:TX:a:t=Mod:	!	!	!	!LO:TX:t=P:tekst:problem=nad "y" zawsze pojedyncza kropka	!	!	!	!LO:TX:t=P:tekst:problem=nad "y" zawsze pojedyncza kropka	!	!	!	!LO:TX:t=P:tekst:problem=nad "y" zawsze pojedyncza kropka	!	!	!	!LO:TX:a:t=in C.	!LO:TX:a:t=in C&colon;
2G\	2G\	Wielb	Gdyz	A	2G/	Wielb	Gdyż	A	2g\	Wielb	Gdyz	A	2g\	Wielb	Gdyż	A	1r	1r
4A\	4A\	du-	od	Mi-	4A/	du-	od	mi-	4a\	du-	od	Mi-	4a\	Du-	od	Mi-	.	.
4G\	4G\	-ſzo	wſzyst-	-ło-	4G/	-ſzo	wſzyst-	-ło-	4g\	-ſzo	wſzyst-	-ło-	4g\	-ſzo	wſzyst-	-ło-	.	.
=2	=2	=2	=2	=2	=2	=2	=2	=2	=2	=2	=2	=2	=2	=2	=2	=2	=2	=2
2C/	2c\	mo-	-Kich	-sier-	2.G/	mo-	-Kich	-sier-	(2e/	mo-	-Kich	-sier-	(2cc\	mo-	-Kich	-sier-	4r	4r
.	.	.	.	.	.	.	.	.	.	.	.	.	.	.	.	.	4cc\	4ee\
2GG/	2G\	-ia	na-	-dzie	.	.	.	.	4f/)	.	.	.	4dd\)	.	.	.	4dd\	4ff\
.	.	.	.	.	4G/	-ja	na-	-dzie	4d/	-ja	na-	-dzie	4b\	-ja	na-	-dzie	4b\	4dd\
=3	=3	=3	=3	=3	=3	=3	=3	=3	=3	=3	=3	=3	=3	=3	=3	=3	=3	=3
!	!	!	!	!	!LO:SIC:l:n=3:s=je	!	!	!	!	!	!	!	!	!	!	!	!	!
4C/	2C/	Pa-	-ro-	ie-	2G/	Pa-	-ro-	ie-	2e/	Pa-	-ro-	ie-	2cc\	Pa-	-ro-	ie-	4cc\	4ee\
4CC/	.	.	.	.	.	.	.	.	.	.	.	.	.	.	.	.	4ee\	4gg\
!	!	!	!	!	!LO:SIC:l:n=2:s=dów	!	!	!	!	!	!	!	!	!	!	!	!	!
4EE/	2C/	-na	-dow	-go	2G/	-na	-dow	-go	2e/	-na	-dow	-go	2cc\	-na	-dow	-go	4cc\	4ee\
4GG/	.	.	.	.	.	.	.	.	.	.	.	.	.	.	.	.	4ee\	4gg\
=4	=4	=4	=4	=4	=4	=4	=4	=4	=4	=4	=4	=4	=4	=4	=4	=4	=4	=4
!LO:LB:g=original	!	!	!	!	!	!	!	!	!	!	!	!	!	!	!	!	!	!
2C/	2r	.	.	.	2r	.	.	.	2r	.	.	.	2r	.	.	.	4cc\	4ee\
.	.	.	.	.	.	.	.	.	.	.	.	.	.	.	.	.	4ee\	4gg\
!	!	!	!	!	!LO:SIC:l:n=1:s=bądź	!	!	!	!	!	!	!	!	!	!	!	!	!
2E/	2E\	bądz	bę-	z_po-	2c\	bądz	bę-	z_po-	2g\	bądz	bę-	z_po-	2cc\	bądz	bę-	z_po-	4e/	4cc\
.	.	.	.	.	.	.	.	.	.	.	.	.	.	.	.	.	4r	4r
=5	=5	=5	=5	=5	=5	=5	=5	=5	=5	=5	=5	=5	=5	=5	=5	=5	=5	=5
!	!LO:LB:g=original	!	!	!	!LO:LB:g=original	!	!	!	!LO:LB:g=original	!	!	!	!LO:LB:g=original	!	!	!	!LO:LB:g=original	!
2E/	2E\	pe-	-dę	-to-	2c\	pe-	-dę	-to-	2g\	pe-	-dę	-to-	2cc\	pe-	-dę	-to-	4r	4r
.	.	.	.	.	.	.	.	.	.	.	.	.	.	.	.	.	4cc\	4gg\
4D/	4D\	-łen	u-	-mno-	4f\	-łen	u-	-mno-	4g\	-łen	u-	-mno-	4b\	-łen	u-	-mno-	4b\	4ff\
!	!	!	!	!	!LO:SIC:l:n=3:s=jak	!	!	!	!	!	!	!	!	!	!	!	!	!
4C/	4C\	we-	-wiel-	-ścią	4e\	we-	-wiel-	-scią	4g\	we-	-wiel-	-ścią	4cc\	We-	-wiel-	-śćią	4cc\	4ee\
=6	=6	=6	=6	=6	=6	=6	=6	=6	=6	=6	=6	=6	=6	=6	=6	=6	=6	=6
2BB/	2BB/	-se-	-bio-	swo-	2d\	-se-	-bio-	swo-	2g\	-se-	-bio-	swo-	2dd\	-se-	-bio-	swo-	4b/	4dd\
.	.	.	.	.	.	.	.	.	.	.	.	.	.	.	.	.	4b/	4gg\
2GG/	2GG/	-la	-ną	-ią	2B\	-la	-ną	-ią	2g\	-la	-ną	-ią	2dd\	-la.	-ną	-ią	4g/	4dd\
.	.	.	.	.	.	.	.	.	.	.	.	.	.	.	.	.	4d/	4b\
=7	=7	=7	=7	=7	=7	=7	=7	=7	=7	=7	=7	=7	=7	=7	=7	=7	=7	=7
2G\	2G\	Du-	Od-	Bio-	2G/	du-	Od-	Bio-	2g\	Du-	Od-	Bio-	2g\	Du-	Od-	Bio-	2G/	2g/
4A\	4A\	-chu	-tąd	-rą	4A/	-chu	-tąd	-rą	4a\	-chu	-tąd	-rą	4a\	-chu	-tąd	-rą	2r	2r
!	!	!	!	!	!LO:SIC:l:n=3:s=jak	!	!	!	!	!	!	!	!	!	!	!	!	!
!	!	!	!	!	!LO:SIC:l:n=1:s=mój	!	!	!	!	!	!	!	!	!	!	!	!	!
4G\	4G\	moy	wszy-	iak-	4G/	moy	wszy-	iak-	4g\	moy	wszy-	iak-	4g\	moy	wszy-	iak-	.	.
=8	=8	=8	=8	=8	=8	=8	=8	=8	=8	=8	=8	=8	=8	=8	=8	=8	=8	=8
!	!	!	!	!	!LO:SIC:l:n=2:s=scy	!	!	!	!	!	!	!	!	!	!	!	!	!LO:LB:g=original
4c\	2c\	z_twe-	-ści	-by	2.G/	z_twe-	-ści	-by	(2e/	z_twe-	-scy	-by	(2cc\	z_twe-	-scy	-by	4r	4r
4C/	.	.	.	.	.	.	.	.	.	.	.	.	.	.	.	.	4cc\	4ee\
4G\	2G\	-go	bę-	w_dzie-	.	.	.	.	4f/)	.	.	.	4dd\)	.	.	.	4dd\	4ff\
!	!	!	!	!	!	!	!	!	!	!	!	!	!LO:SIC:v:l:n=2:s=bę-	!	!	!	!	!
4GG/	.	.	.	.	4G/	-go	bę-	w_dzie-	4d/	-go	bę-	w_dzie-	4b\	-go	bą-	w_dzie-	4b\	4dd\
=9	=9	=9	=9	=9	=9	=9	=9	=9	=9	=9	=9	=9	=9	=9	=9	=9	=9	=9
!LO:LB:g=original	!	!	!	!	!LO:LB:g=original	!	!	!	!LO:LB:g=original	!	!	!	!LO:LB:g=original	!	!	!	!	!
4CC/	2c\	Bo-	-dą	-dzi-	2G/	Bo-	-dą	-dzi-	2e/	Bo-	-dą	-dzi-	2cc\	Bo-	-dą	-dzi-	4cc\	4ee\
4C/	.	.	.	.	.	.	.	.	.	.	.	.	.	.	.	.	4ee\	4gg\
4E/	2C/	-ga	mnie	-ctwo	2G/	-ga	mnie	-ctwo	2e/	-ga	mnie	-ctwo	2cc\	-ga	mnie	-ctwo	4ee\	4ccc\
4G/	.	.	.	.	.	.	.	.	.	.	.	.	.	.	.	.	4ee\	4gg\
=10	=10	=10	=10	=10	=10	=10	=10	=10	=10	=10	=10	=10	=10	=10	=10	=10	=10	=10
!	!LO:LB:g=original	!	!	!	!LO:SIC:l:n=3:s=Któ	!	!	!	!	!	!	!	!	!	!	!	!	!
!	!	!	!	!	!LO:SIC:l:n=2:s=zwać	!	!	!	!	!	!	!	!	!	!	!	!	!
2.c\	2.c\	z_twe-	zwac	Kto-	2.c\	z_twe-	zwac	Kto-	2.g/	z_twe-	zwac	Kto-	2.ee\	z_twe-	zwac	Kto-	2cc\	2ee\
.	.	.	.	.	.	.	.	.	.	.	.	.	.	.	.	.	4r	4r
4c\	4c\	-go	bło-	-rzy	4c\	-go	bło-	-rzy	4e/	-go	bło-	-rzy	4a\	-go	bło-	-rzy	4ee\	4aa\
=11	=11	=11	=11	=11	=11	=11	=11	=11	=11	=11	=11	=11	=11	=11	=11	=11	=11	=11
!	!	!	!	!	!LO:SIC:l:n=3:s=się	!	!	!	!	!	!	!	!	!	!	!	!LO:LB:g=original	!
2B\	2B\	zba-	-go-	sie	2d\	zba-	-go-	sie	2e/	zba-	-go-	sie	2g#X\	zba-	-go-	sie	2dd\	4gg#X\
.	.	.	.	.	.	.	.	.	.	.	.	.	.	.	.	.	.	4ee\
2A\	2A\	-wi-	-sła-	go	2c\	-wi-	-sła-	go	2e/	-wi-	-sła-	go	2a\	-wi-	-sła-	go	2cc\	4aa\
.	.	.	.	.	.	.	.	.	.	.	.	.	.	.	.	.	.	4ee\
=12	=12	=12	=12	=12	=12	=12	=12	=12	=12	=12	=12	=12	=12	=12	=12	=12	=12	=12
1E;	2E\	-ćie-	-wio-	bo-	2A\	-cie-	-wio-	bo-	2e/	-cie-	-wio-	bo-	2cc\	-cie-	-wio-	bo-	2aa\	2ccc\
!	!	!	!	!	!LO:SIC:l:n=3:s=ją	!	!	!	!	!	!	!	!	!	!	!	!	!
.	2E;\	-la	-ną	-ią	2G#X;/	-la	-ną	-ią	2e;/	-la	-ną	-ią	2b;\	-la.	-ną	-ią	2gg#X;\	2bb;\
=13	=13	=13	=13	=13	=13	=13	=13	=13	=13	=13	=13	=13	=13	=13	=13	=13	=13	=13
!	!	!	!	!	!LO:LB:g=original	!	!	!	!	!	!	!	!	!	!	!	!	!
2C/	2C/	iz	Bo	Po-	2G/	iz	Bo	Po-	2e/	iz	Bo	Po-	2cc\	iz	Bo	Po-	4r	4r
.	.	.	.	.	.	.	.	.	.	.	.	.	.	.	.	.	4cc\	4ee\
4E/	4E\	słu-	u-	-Ka-	4c/	słu-	u-	-Ka-	4g/	słu-	u-	-Ka-	4cc\	słu-	u-	-Ka-	4cc\	4gg\
4E/	4E\	-że-	-czy-	-zał	4c/	-że-	-czy-	-zał	4g/	-że-	-czy-	-zał	4cc\	-że-	-czy-	-zał	4cc\	4gg\
=14	=14	=14	=14	=14	=14	=14	=14	=14	=14	=14	=14	=14	=14	=14	=14	=14	=14	=14
!LO:LB:g=original	!LO:LB:g=original	!	!	!	!	!	!	!	!LO:LB:g=original	!	!	!	!	!	!	!	!	!
4F\	(2F\	-bni-	-nił	moc	2c\	-bni-	-nił	moc	2.f/	-bni-	-nił	moc	(>2a\	-bni-	-nił	moc	2cc\	4aa\
4FF/	.	.	.	.	.	.	.	.	.	.	.	.	.	.	.	.	.	4cc\
4D\	4D\)	.	.	.	2d\	-cy	mi	prze-	.	.	.	.	4dd\)	.	.	.	4dd\	4ff\
4F\	4F\	-cy	mi	prze-	.	.	.	.	4a/	-cy	mi	prze-	4cc\	-cy	mi	prze-	4dd\	4aa\
=15	=15	=15	=15	=15	=15	=15	=15	=15	=15	=15	=15	=15	=15	=15	=15	=15	=15	=15
!	!	!	!	!	!	!	!	!	!	!	!	!	!	!	!	!	!	!LO:LB:g=original
4G\	(2G\	swo-	wiel-	-dzi-	2d\	swo-	wiel-	-dzi-	2.g\	swo-	wiel-	-dzi-	(2b\	swo-	wiel-	-dzi-	2dd\	4bb\
4GG/	.	.	.	.	.	.	.	.	.	.	.	.	.	.	.	.	.	4dd\
4E\	4E\)	.	.	.	2e\	-iey	-Kie	-wną	.	.	.	.	4ee\)	.	.	.	4ee\	4gg\
4G\	4G\	-iey	-Kie	-wną	.	.	.	.	4b\	-iey	-Kie	-wną	4dd\	-iey	-kie	-wną	4ee\	4bb\
=16	=16	=16	=16	=16	=16	=16	=16	=16	=16	=16	=16	=16	=16	=16	=16	=16	=16	=16
2A\	2A\	nie	rze-	swo-	2c\	nie	rze-	swo-	2e/	nie	rze-	swo-	2cc\	nie	rze-	swo-	4ee\	4ccc\
.	.	.	.	.	.	.	.	.	.	.	.	.	.	.	.	.	4ee\	4aa\
2A\	2A\	wzgar-	-czy	-ie-	2c\	wzgar-	-czy	-ie-	2e/	wzgar-	-czy	-ie-	2cc\	wzgar-	-czy	-ie-	4cc\	4ee\
.	.	.	.	.	.	.	.	.	.	.	.	.	.	.	.	.	4a\	4cc\
=17	=17	=17	=17	=17	=17	=17	=17	=17	=17	=17	=17	=17	=17	=17	=17	=17	=17	=17
!	!	!	!	!	!	!	!	!	!	!	!	!	!LO:LB:g=original	!	!	!	!LO:LB:g=original	!
2.B\	2.B\	-dził	ten	-go	2.d\	-dził	ten	-go	2.g\	-dził	ten	-go	2.ff\	-dził	ten	-go	4r	4r
.	.	.	.	.	.	.	.	.	.	.	.	.	.	.	.	.	4dd\	4ff\
.	.	.	.	.	.	.	.	.	.	.	.	.	.	.	.	.	4dd\	4ff\
4c\	4c\	U-	pan	ra-	4c\	U-	pan	ra-	4g\	U-	pan	ra-	4ee\	U-	pan	ra-	4cc\	4ee\
=18	=18	=18	=18	=18	=18	=18	=18	=18	=18	=18	=18	=18	=18	=18	=18	=18	=18	=18
!	!	!	!	!	!LO:LB:g=original	!	!	!	!	!	!	!	!	!	!	!	!	!
2G\	2G\	-bo-	Kto-	-mie-	2B\	-bo-	Kto-	-mie-	2g\	-bo-	Kto-	-mie-	2dd\	-bo-	Kto-	-mie-	4b/	4dd\
.	.	.	.	.	.	.	.	.	.	.	.	.	.	.	.	.	4b/	4gg\
2GG/	2G\	-stwem	-ry	-nia	2B\	-stwem	-ry	-nia	2g\	-stwem	-ry	-nia	2dd\	-stwem	-ry	-nia	4b/	4dd\
.	.	.	.	.	.	.	.	.	.	.	.	.	.	.	.	.	4g/	4b\
=19	=19	=19	=19	=19	=19	=19	=19	=19	=19	=19	=19	=19	=19	=19	=19	=19	=19	=19
!LO:LB:g=original	!LO:LB:g=original	!	!	!	!	!	!	!	!LO:LB:g=original	!	!	!	!	!	!	!	!	!
2G\	2G\	Lecz	z_J-	Py-	2G/	Lecz	z_J-	Py-	2g\	Lecz	-z_J-	Py-	2g\	Lecz	-z_J-	Py-	2G/	2g/
4C/	4C/	wey-	-mie-	-sznych	4c\	wey-	-mie-	-sznych	4e/	wey-	-mie-	-sznych	4cc\	wey-	-mie-	-sznych	4r	4r
4E/	4E/	-rzał	-nia	serc	4c\	-rzał	-nia	serc	4g/	-rzał	-nia	serc	4b\	-rzał	-nia	serc	4cc\	4gg\
=20	=20	=20	=20	=20	=20	=20	=20	=20	=20	=20	=20	=20	=20	=20	=20	=20	=20	=20
4F\	(2F\	na	Swię-	du-	(2c\	na	Swię-	du-	2.f/	na	Swię-	du-	(2a\	na	Swię-	du-	2cc\	4aa\
4FF/	.	.	.	.	.	.	.	.	.	.	.	.	.	.	.	.	.	4cc\
4D\	4D\)	.	.	.	4A\)	.	.	.	.	.	.	.	4dd\)	.	.	.	4dd\	4ff\
4F\	4F\	po-	-ty	-mne	4d\	po-	-ty	-mne	4a/	po-	-ty	-mne	4cc\	po-	-ty	-mne	4dd\	4aa\
=21	=21	=21	=21	=21	=21	=21	=21	=21	=21	=21	=21	=21	=21	=21	=21	=21	=21	=21
!	!	!	!	!	!	!	!	!	!	!	!	!	!LO:LB:g=original	!	!	!	!	!
4G\	(2G\	-ko-	z_dzieł	my-	(2d\	-Ko-	z_dzieł	my-	2.g\	-Ko-	z_dzieł	my-	(2b\	-Ko-	z_dzieł	my-	2dd\	4bb\
4GG/	.	.	.	.	.	.	.	.	.	.	.	.	.	.	.	.	.	4dd\
4E\	4E\)	.	.	.	4B\)	.	.	.	.	.	.	.	4ee\)	.	.	.	4ee\	4gg\
4G\	4G\	-rę	iest	-sli	4e\	-rę	iest	-sli	4b\	-rę	iest	-sli	4dd\	-rę	iest	-sli	4ee\	4bb\
=22	=22	=22	=22	=22	=22	=22	=22	=22	=22	=22	=22	=22	=22	=22	=22	=22	=22	=22
!	!	!	!	!	!LO:LB:g=original	!	!	!	!	!	!	!	!	!	!	!	!	!
2A\	2A\	zda-	wsze-	pu-	2c\	z_da-	wsze-	pu-	2e/	z_da-	wsze-	pu-	2cc\	-z_da-	wsze-	pu-	2ee\	4ccc\
.	.	.	.	.	.	.	.	.	.	.	.	.	.	.	.	.	.	4ee\
!	!	!	!	!	!	!	!	!	!LO:LB:g=original	!	!	!	!	!	!	!	!	!LO:LB:g=original
2F\	2F\	-rów	-chmo-	-śćił	2A\	-row	-chmo-	-scił	(8f/L	-row	-chmo-	-scił	(8dd\L	-row	-chmo-	-śćił	8dd\L	8ff\L
.	.	.	.	.	.	.	.	.	8g/	.	.	.	8ee\	.	.	.	8ee\	8gg\
.	.	.	.	.	.	.	.	.	8a/	.	.	.	8ff\	.	.	.	8ff\	8aa\
.	.	.	.	.	.	.	.	.	8f/J)	.	.	.	8dd\J)	.	.	.	8dd\J	8ff\J
=23	=23	=23	=23	=23	=23	=23	=23	=23	=23	=23	=23	=23	=23	=23	=23	=23	=23	=23
!	!LO:LB:g=original	!	!	!	!	!	!	!	!	!	!	!	!	!	!	!	!LO:LB:g=original	!
2G\	2G\	swo-	-cney	w_roz-	2.G/	swo-	-cney	w_roz-	(2e/	swo-	-cney	w roz-	(2cc\	swo-	-cney	w_roz-	4.cc\	4.ee\
.	.	.	.	.	.	.	.	.	.	.	.	.	.	.	.	.	8ee\	8gg\
2GG/	2GG/	-ich	na-	-pro-	.	.	.	.	4d/)	.	.	.	4b\)	.	.	.	4dd\	(8gg\L
.	.	.	.	.	.	.	.	.	.	.	.	.	.	.	.	.	.	8ff\
.	.	.	.	.	4G/	-ich	na	-pro-	4f/	-ich	Na-	-pro-	4dd\	-ich	Na-	-pro-	4b\	8ee\
.	.	.	.	.	.	.	.	.	.	.	.	.	.	.	.	.	.	8dd\J)
=24	=24	=24	=24	=24	=24	=24	=24	=24	=24	=24	=24	=24	=24	=24	=24	=24	=24	=24
!LO:LB:g=original	!	!	!	!	!	!	!	!	!	!	!	!	!	!	!	!	!	!
(2GG/	2GG/	mno-	-tu-	-sze-	2G/	mno-	tu-	-sze-	2f/	mno-	-tu-	-sze-	2dd\	mno-	-tu-	-sze-	(2b\	2ff\
!	!LO:SIC:l:n=3:s=nia	!	!	!	!LO:SIC:l:v:n=3:s=nia	!	!	!	!LO:SIC:v:l:n=3:s=nia	!	!	!	!	!	!	!	!	!
4C/)	4C/	-stwem	-ry	-nie	4G/	-stwem	-ry	-nie	4e/	-stwem.	-ry	-nie	4cc\	-stwem.	-ry.	-nia.	4cc\)	4ee\
4r	4r	.	.	.	4r	.	.	.	4r	.	.	.	4r	.	.	.	4r	4r
!	!	!	!	!	!	!	!	!	!	!	!	!	!	!	!	!	!	!LO:TX:a:t=Da Capo.
=:|!	=:|!	=:|!	=:|!	=:|!	=:|!	=:|!	=:|!	=:|!	=:|!	=:|!	=:|!	=:|!	=:|!	=:|!	=:|!	=:|!	=:|!	=:|!
*-	*-	*-	*-	*-	*-	*-	*-	*-	*-	*-	*-	*-	*-	*-	*-	*-	*-	*-
!!!system-decoration: [(s1,s2)][(s3,s4,s5,s6)]s7
!!!RDF**kern: > = above
!!!RDF**kern: < = below
!!!ENC: Kamil Watkowski
!!!END: 2020-10-06
!!!ENC: Krzysztof Stępień
!!!END: 2021-11-24
!!!YEC: Copyright 2022 Narodowy Instytut Fryderyka Chopina (https://polishscores.org)
!!!YEM: Licence CC BY 4.0 (https://creativecommons.org/licenses/by/4.0)
